assets/icons/gallery.svg

<svg width="22" height="21" viewBox="0 0 22 21" fill="none" xmlns="http://www.w3.org/2000/svg">
<g clip-path="url(#clip0_553_1593)">
<path fill-rule="evenodd" clip-rule="evenodd" d="M18.4789 6.81072C18.1158 6.44756 17.5895 6.22557 16.5214 6.1205L16.6927 4.37891C17.9142 4.49906 18.9292 4.78608 19.7164 5.57328C20.4219 6.27878 20.7256 7.16724 20.8676 8.22346C21.0044 9.24101 21.0043 10.535 21.0043 12.1409V12.269C21.0043 13.8751 21.0044 15.169 20.8676 16.1866C20.7256 17.2428 20.4219 18.1313 19.7164 18.8368C19.0109 19.5423 18.1224 19.8459 17.0662 19.9879C16.0487 20.1248 14.7547 20.1247 13.1487 20.1247H13.0206C11.4146 20.1247 10.1206 20.1248 9.10309 19.9879C8.04688 19.8459 7.15842 19.5423 6.45292 18.8368C5.66572 18.0495 5.3787 17.0345 5.25854 15.813L7.00014 15.6417C7.10521 16.7098 7.32719 17.2361 7.69035 17.5993C8.01652 17.9255 8.47412 18.1377 9.33627 18.2535C10.2236 18.3729 11.3995 18.3747 13.0846 18.3747C14.7699 18.3747 15.9457 18.3729 16.833 18.2535C17.6952 18.1377 18.1528 17.9255 18.4789 17.5993C18.8051 17.2732 19.0173 16.8155 19.1331 15.9534C19.2525 15.0661 19.2543 13.8902 19.2543 12.205C19.2543 10.5198 19.2525 9.344 19.1331 8.45663C19.0173 7.59448 18.8051 7.13688 18.4789 6.81072Z" fill="white"/>
<path fill-rule="evenodd" clip-rule="evenodd" d="M9.56611 0.875489H9.69418C11.2897 0.875465 12.5757 0.875446 13.5871 1.01144C14.6373 1.15262 15.5215 1.45466 16.2237 2.1569C16.926 2.85913 17.228 3.74332 17.3692 4.79345C17.5052 5.80491 17.5051 7.09093 17.5051 8.68644V8.81454C17.5051 10.41 17.5052 11.6961 17.3692 12.7075C17.228 13.7577 16.926 14.6419 16.2237 15.3441C15.5215 16.0463 14.6373 16.3484 13.5871 16.4895C12.5757 16.6256 11.2897 16.6255 9.69418 16.6255H9.56608C7.97057 16.6255 6.68455 16.6256 5.67309 16.4895C4.62296 16.3484 3.73877 16.0463 3.03654 15.3441C2.3343 14.6419 2.03226 13.7577 1.89108 12.7075C1.75508 11.6961 1.7551 10.41 1.75513 8.81454V8.68647C1.7551 7.09095 1.75508 5.80491 1.89108 4.79345C2.03226 3.74332 2.3343 2.85913 3.03654 2.1569C3.73877 1.45466 4.62296 1.15262 5.67309 1.01144C6.68455 0.875446 7.97059 0.875465 9.56611 0.875489ZM5.90627 2.74583C5.05019 2.86093 4.59687 3.07144 4.27397 3.39433C3.95108 3.71723 3.74056 4.17056 3.62547 5.02663C3.50699 5.90788 3.50513 7.07584 3.50513 8.75049C3.50513 10.4252 3.50699 11.5931 3.62547 12.4743C3.74056 13.3304 3.95108 13.7838 4.27397 14.1066C4.59687 14.4295 5.05019 14.64 5.90627 14.7552C6.78752 14.8737 7.95547 14.8755 9.63013 14.8755C11.3048 14.8755 12.4727 14.8737 13.354 14.7552C14.2101 14.64 14.6634 14.4295 14.9863 14.1066C15.3091 13.7838 15.5197 13.3304 15.6348 12.4743C15.7533 11.5931 15.7551 10.4252 15.7551 8.75049C15.7551 7.07584 15.7533 5.90788 15.6348 5.02663C15.5197 4.17056 15.3091 3.71723 14.9863 3.39433C14.6634 3.07144 14.2101 2.86093 13.354 2.74583C12.4727 2.62735 11.3048 2.62549 9.63013 2.62549C7.95547 2.62549 6.78752 2.62735 5.90627 2.74583Z" fill="white"/>
<path d="M17.0469 9.70923C15.7112 8.60865 14.4221 8.08477 13.1684 8.06091C11.9171 8.0371 10.7962 8.51335 9.79917 9.23104C8.04634 10.4926 6.52642 12.6217 5.17589 14.5135C5.02243 14.7285 4.87114 14.9404 4.72195 15.1476L4.14771 15.9453L5.10453 16.1699C6.13098 16.4109 7.41925 16.4096 9.17038 16.408C9.31993 16.4079 9.47311 16.4077 9.62955 16.4077H9.67886C11.2869 16.4077 12.5606 16.4077 13.5575 16.2737C14.5833 16.1358 15.4136 15.8452 16.0685 15.1903C16.6166 14.6423 16.9132 13.9756 17.0765 13.1639C17.2357 12.372 17.2752 11.4035 17.2858 10.2216L17.2886 9.90838L17.0469 9.70923Z" fill="white"/>
</g>
<defs>
<clipPath id="clip0_553_1593">
<rect width="21" height="21" fill="white" transform="translate(0.880127 0.000488281)"/>
</clipPath>
</defs>
</svg>

<svg xmlns="http://www.w3.org/2000/svg" width="22" height="21" fill="none" viewBox="0 0 22 21"><g fill="#fff" clip-path="url(#a)"><path fill-rule="evenodd" d="M18.479 6.81c-.363-.362-.89-.584-1.958-.69l.172-1.741c1.221.12 2.236.407 3.023 1.194.706.706 1.01 1.594 1.152 2.65.136 1.018.136 2.312.136 3.918v.128c0 1.606 0 2.9-.136 3.918-.142 1.056-.446 1.944-1.152 2.65-.705.705-1.594 1.009-2.65 1.15-1.017.138-2.311.138-3.917.138h-.128c-1.606 0-2.9 0-3.918-.137-1.056-.142-1.945-.446-2.65-1.151-.787-.788-1.074-1.802-1.194-3.024L7 15.642c.105 1.068.327 1.594.69 1.957.327.326.784.539 1.646.654.888.12 2.063.122 3.749.122s2.86-.002 3.748-.122c.862-.115 1.32-.328 1.646-.654s.538-.784.654-1.646c.12-.887.121-2.063.121-3.748s-.002-2.861-.12-3.748c-.117-.863-.329-1.32-.655-1.646" clip-rule="evenodd"/><path fill-rule="evenodd" d="M9.566.875h.128c1.596 0 2.882 0 3.893.136 1.05.142 1.935.444 2.637 1.146s1.004 1.586 1.145 2.636c.136 1.012.136 2.298.136 3.893v.129c0 1.595 0 2.881-.136 3.893-.141 1.05-.443 1.934-1.145 2.636-.703.702-1.587 1.004-2.637 1.146-1.011.136-2.297.136-3.893.136h-.128c-1.595 0-2.881 0-3.893-.137-1.05-.14-1.934-.443-2.636-1.145s-1.005-1.586-1.146-2.636c-.136-1.012-.136-2.298-.136-3.893v-.129c0-1.595 0-2.881.136-3.893.141-1.05.443-1.934 1.146-2.636S4.623 1.153 5.673 1.01C6.685.875 7.971.875 9.566.875m-3.66 1.87c-.856.116-1.31.326-1.632.65-.323.322-.533.776-.649 1.632-.118.88-.12 2.049-.12 3.723 0 1.675.002 2.843.12 3.724.116.856.326 1.31.649 1.633s.776.533 1.632.648c.882.119 2.05.12 3.724.12s2.843-.001 3.724-.12c.856-.115 1.31-.325 1.632-.648.323-.323.534-.777.649-1.633.118-.88.12-2.049.12-3.724 0-1.674-.002-2.842-.12-3.723-.115-.856-.326-1.31-.649-1.633s-.776-.533-1.632-.648c-.881-.119-2.05-.12-3.724-.12s-2.842.001-3.724.12" clip-rule="evenodd"/><path d="M17.047 9.71c-1.336-1.101-2.625-1.625-3.879-1.65-1.25-.023-2.372.453-3.369 1.171-1.753 1.262-3.273 3.39-4.623 5.283l-.454.634-.574.797.957.225c1.026.24 2.314.24 4.065.238h.509c1.608 0 2.882 0 3.878-.134 1.026-.138 1.857-.429 2.512-1.084.548-.548.844-1.214 1.008-2.026.159-.792.198-1.76.209-2.942l.003-.314z"/></g><defs><clipPath id="a"><path fill="#fff" d="M.88 0h21v21h-21z"/></clipPath></defs></svg>
